; generated by PrusaSlicer 2.6.1+win64 on 2024-09-11 at 07:55:19 UTC

; 

; external perimeters extrusion width = 0.45mm
; perimeters extrusion width = 0.45mm
; infill extrusion width = 0.45mm
; solid infill extrusion width = 0.45mm
; top infill extrusion width = 0.40mm
; support material extrusion width = 0.35mm
; first layer extrusion width = 0.42mm

M190 S60 ; set bed temperature and wait for it to be reached
M104 S215 ; set temperature
;TYPE:Custom
G28 ; home all axes
G1 Z5 F5000 ; lift nozzle
M109 S215 ; set temperature and wait for it to be reached
G21 ; set units to millimeters
G90 ; use absolute coordinates
M82 ; use absolute distances for extrusion
G92 E0
; Filament gcode
M107
;LAYER_CHANGE
;Z:0.35
;HEIGHT:0.35
G1 Z.35 F7800
G1 E-2 F2400
G92 E0
G1 X190.629 Y133.157 F7800
G1 E2 F2400
;TYPE:Skirt/Brim
;WIDTH:0.42
G1 F1800
G1 X191.485 Y132.019 E2.07146
G1 X192.496 Y131.041 E2.14205
G1 X193.389 Y130.391 E2.19748
G1 X194.929 Y129.603 E2.2843
G1 X196.286 Y129.187 E2.35553
G1 X197.385 Y129.012 E2.41138
G1 X202.302 Y128.987 E2.65815
G1 X203.693 Y129.182 E2.72864
G1 X205.048 Y129.594 E2.79972
G1 X206.323 Y130.214 E2.87087
G1 X207.494 Y131.033 E2.94258
G1 X208.505 Y132.008 E3.01307
G1 X209.366 Y133.149 E3.08481
G1 X210.031 Y134.4 E3.15591
G1 X210.489 Y135.728 E3.22641
G1 X210.737 Y137.123 E3.29752
G1 X210.785 Y138 E3.3416
G1 X210.738 Y162.865 E4.58947
G1 X210.492 Y164.26 E4.66056
G1 X210.151 Y165.31 E4.71596
G1 X209.366 Y166.851 E4.80275
G1 X208.717 Y167.744 E4.85815
G1 X207.733 Y168.763 E4.92924
G1 X206.334 Y169.78 E5.01604
G1 X205.06 Y170.401 E5.08717
G1 X204.01 Y170.742 E5.14257
G1 X202.615 Y170.988 E5.21366
G1 X197.388 Y170.989 E5.47598
G1 X196.002 Y170.745 E5.54661
G1 X194.659 Y170.285 E5.61785
G1 X193.666 Y169.78 E5.67376
G1 X192.506 Y168.967 E5.74485
G1 X191.487 Y167.983 E5.81594
G1 X190.641 Y166.861 E5.88646
G1 X189.969 Y165.6 E5.95817
G1 X189.508 Y164.26 E6.02929
G1 X189.262 Y162.865 E6.10038
G1 X189.215 Y162 E6.14385
G1 X189.261 Y137.138 E7.39157
G1 X189.505 Y135.749 E7.46235
G1 X189.849 Y134.69 E7.51823
G1 X190.602 Y133.21 E7.60157
G1 X190.908 Y133.366 F7800
G1 F1800
G1 X191.747 Y132.243 E7.67192
G1 X192.721 Y131.303 E7.73985
G1 X193.569 Y130.685 E7.79251
G1 X195.061 Y129.922 E7.87661
G1 X196.367 Y129.522 E7.94516
G1 X197.412 Y129.355 E7.99827
G1 X202.275 Y129.331 E8.24233
G1 X203.613 Y129.517 E8.31012
G1 X204.917 Y129.913 E8.37851
G1 X206.143 Y130.508 E8.4469
G1 X207.27 Y131.295 E8.51589
G1 X208.243 Y132.232 E8.58368
G1 X209.072 Y133.329 E8.65269
G1 X209.713 Y134.532 E8.7211
G1 X210.154 Y135.809 E8.7889
G1 X210.393 Y137.151 E8.85731
G1 X210.44 Y138 E8.89998
G1 X210.395 Y162.838 E10.1465
G1 X210.23 Y163.875 E10.1992
G1 X209.833 Y165.178 E10.26756
G1 X209.072 Y166.671 E10.35166
G1 X208.455 Y167.52 E10.40433
G1 X207.509 Y168.501 E10.47272
G1 X206.153 Y169.486 E10.55683
G1 X204.928 Y170.083 E10.62522
G1 X203.93 Y170.407 E10.67788
G1 X202.588 Y170.645 E10.74628
G1 X197.415 Y170.645 E11.00589
G1 X196.082 Y170.41 E11.07382
G1 X194.79 Y169.966 E11.14238
G1 X193.579 Y169.322 E11.21121
G1 X192.491 Y168.501 E11.27961
G1 X191.547 Y167.522 E11.34786
G1 X190.769 Y166.411 E11.41593
G1 X190.167 Y165.178 E11.48479
G1 X189.77 Y163.875 E11.55315
G1 X189.56 Y162 E11.64784
G1 X189.605 Y137.165 E12.89421
G1 X189.841 Y135.829 E12.9623
G1 X190.167 Y134.822 E13.01542
G1 X190.881 Y133.42 E13.09438
G1 X191.187 Y133.576 F7800
G1 F1800
G1 X191.807 Y132.704 E13.14808
G1 X192.707 Y131.769 E13.21321
G1 X194.017 Y130.814 E13.29457
G1 X194.904 Y130.361 E13.34455
G1 X196.14 Y129.931 E13.41023
G1 X197.439 Y129.699 E13.47645
G1 X202.248 Y129.675 E13.7178
G1 X203.533 Y129.853 E13.7829
G1 X204.785 Y130.232 E13.84855
G1 X205.963 Y130.803 E13.91425
G1 X207.046 Y131.557 E13.98048
G1 X207.981 Y132.457 E14.04561
G1 X208.778 Y133.509 E14.11185
G1 X209.394 Y134.664 E14.17754
G1 X209.892 Y136.195 E14.25834
G1 X210.095 Y138 E14.3495
G1 X210.051 Y162.811 E15.59466
G1 X209.822 Y164.099 E15.66031
G1 X209.514 Y165.046 E15.71029
G1 X208.778 Y166.491 E15.79167
G1 X208.193 Y167.296 E15.84161
G1 X207.285 Y168.239 E15.90731
G1 X205.973 Y169.192 E15.98869
G1 X204.796 Y169.764 E16.05436
G1 X203.849 Y170.072 E16.10434
G1 X202.561 Y170.301 E16.16999
G1 X197.442 Y170.301 E16.42689
G1 X196.162 Y170.074 E16.49213
G1 X194.922 Y169.647 E16.55795
G1 X193.759 Y169.028 E16.62407
G1 X192.715 Y168.239 E16.68974
G1 X191.809 Y167.298 E16.7553
G1 X191.063 Y166.231 E16.82064
G1 X190.486 Y165.046 E16.88679
G1 X190.105 Y163.794 E16.95247
G1 X189.905 Y162 E17.04306
G1 X189.949 Y137.192 E18.28807
G1 X190.176 Y135.909 E18.35346
G1 X190.486 Y134.954 E18.40385
G1 X191.16 Y133.629 E18.47846
G1 E16.47846 F2400
G92 E0
G1 X197.257 Y161.205 F7800
G1 E2 F2400
;TYPE:Perimeter
;WIDTH:0.635029
G1 F1800
G1 X197.334 Y161.301 E2.01003
;WIDTH:0.592023
G1 X197.411 Y161.397 E2.01929
;WIDTH:0.549017
G1 X197.489 Y161.493 E2.02782
;WIDTH:0.506011
G1 X197.566 Y161.589 E2.03554
;WIDTH:0.463005
G1 X197.643 Y161.685 E2.04249
;WIDTH:0.42
G1 X197.943 Y161.857 E2.05984
G1 X198.212 Y161.9 E2.07351
G1 X201.634 Y161.9 E2.24525
G1 X202.057 Y161.857 E2.26659
G1 X202.357 Y161.685 E2.28394
;WIDTH:0.463005
G1 X202.434 Y161.589 E2.29089
;WIDTH:0.506011
G1 X202.511 Y161.493 E2.29861
;WIDTH:0.549017
G1 X202.589 Y161.397 E2.30714
;WIDTH:0.592023
G1 X202.666 Y161.301 E2.3164
;WIDTH:0.635029
G1 X202.743 Y161.205 E2.32643
G1 X202.764 Y161.346 E2.33804
;WIDTH:0.592023
G1 X202.786 Y161.486 E2.3487
;WIDTH:0.549017
G1 X202.807 Y161.627 E2.35853
;WIDTH:0.506011
G1 X202.829 Y161.767 E2.36742
;WIDTH:0.463005
G1 X202.85 Y161.907 E2.37541
;WIDTH:0.42
G1 X202.797 Y162.268 E2.39372
G1 X202.668 Y162.569 E2.41015
G1 X202.452 Y162.819 E2.42673
G1 X202.169 Y162.994 E2.44343
G1 X201.681 Y163.1 E2.46849
G1 X198.366 Y163.1 E2.63486
G1 X198.004 Y163.05 E2.6532
G1 X197.688 Y162.921 E2.67033
G1 X197.426 Y162.697 E2.68763
G1 X197.245 Y162.398 E2.70517
G1 X197.15 Y161.907 E2.73027
;WIDTH:0.463005
G1 X197.171 Y161.767 E2.73826
;WIDTH:0.506011
G1 X197.193 Y161.627 E2.74715
;WIDTH:0.549017
G1 X197.214 Y161.486 E2.75698
;WIDTH:0.592023
G1 X197.236 Y161.346 E2.76764
;WIDTH:0.635029
G1 X197.248 Y161.264 E2.77439
G1 E.77439 F2400
G92 E0
G1 X202.755 Y137.606 F7800
G1 E2 F2400
;WIDTH:0.42
G1 F1800
G1 X202.85 Y138.093 E2.0249
;WIDTH:0.460089
G1 X202.83 Y138.267 E2.03471
;WIDTH:0.500178
G1 X202.81 Y138.441 E2.04554
;WIDTH:0.540267
G1 X202.79 Y138.615 E2.05739
;WIDTH:0.580356
G1 X202.77 Y138.788 E2.07019
;WIDTH:0.620445
G1 X202.75 Y138.962 E2.08409
G1 X202.671 Y138.833 E2.09609
;WIDTH:0.580356
G1 X202.593 Y138.704 E2.10717
;WIDTH:0.540267
G1 X202.514 Y138.574 E2.11747
;WIDTH:0.500178
G1 X202.436 Y138.445 E2.12679
;WIDTH:0.460089
G1 X202.357 Y138.315 E2.13531
;WIDTH:0.42
G1 X202.057 Y138.143 E2.15266
G1 X201.788 Y138.1 E2.16633
G1 X198.366 Y138.1 E2.33807
G1 X197.943 Y138.143 E2.35941
G1 X197.643 Y138.315 E2.37676
;WIDTH:0.460089
G1 X197.564 Y138.445 E2.38528
;WIDTH:0.500178
G1 X197.486 Y138.574 E2.3946
;WIDTH:0.540267
G1 X197.407 Y138.704 E2.4049
;WIDTH:0.580356
G1 X197.329 Y138.833 E2.41598
;WIDTH:0.620445
G1 X197.25 Y138.962 E2.42798
G1 X197.23 Y138.788 E2.44188
;WIDTH:0.580356
G1 X197.21 Y138.614 E2.45476
;WIDTH:0.540267
G1 X197.19 Y138.441 E2.46655
;WIDTH:0.500178
G1 X197.17 Y138.267 E2.47738
;WIDTH:0.460089
G1 X197.15 Y138.093 E2.48719
;WIDTH:0.42
G1 X197.203 Y137.732 E2.5055
G1 X197.332 Y137.431 E2.52193
G1 X197.548 Y137.181 E2.53851
G1 X197.831 Y137.006 E2.55521
G1 X198.319 Y136.9 E2.58027
G1 X201.634 Y136.9 E2.74664
G1 X201.996 Y136.95 E2.76498
G1 X202.312 Y137.079 E2.78211
G1 X202.574 Y137.303 E2.79941
G1 X202.726 Y137.554 E2.81414
G1 X203.118 Y137.555 F7800
G1 F1800
G1 X203.195 Y138.093 E2.84142
G1 X203.195 Y161.907 E4.03655
G1 X203.118 Y162.445 E4.06383
G1 X202.914 Y162.846 E4.08641
G1 X202.596 Y163.164 E4.10898
G1 X202.195 Y163.368 E4.13156
G1 X201.708 Y163.445 E4.1563
G1 X198.366 Y163.445 E4.32402
G1 X197.805 Y163.368 E4.35244
G1 X197.404 Y163.164 E4.37502
G1 X197.086 Y162.846 E4.39759
G1 X196.882 Y162.445 E4.42017
G1 X196.805 Y161.958 E4.44491
G1 X196.805 Y138.093 E5.6426
G1 X196.882 Y137.555 E5.66988
G1 X197.086 Y137.154 E5.69246
G1 X197.404 Y136.836 E5.71503
G1 X197.805 Y136.632 E5.73761
G1 X198.292 Y136.555 E5.76235
G1 X201.634 Y136.555 E5.93007
G1 X202.195 Y136.632 E5.95849
G1 X202.596 Y136.836 E5.98107
G1 X202.914 Y137.154 E6.00364
G1 X203.091 Y137.502 E6.02323
G1 X203.453 Y137.47 F7800
;TYPE:External perimeter
G1 F1800
G1 X203.54 Y138.093 E6.0548
G1 X203.54 Y161.985 E7.25384
G1 X203.45 Y162.552 E7.28265
G1 X203.196 Y163.051 E7.31075
G1 X202.801 Y163.446 E7.33878
G1 X202.302 Y163.7 E7.36688
G1 X201.735 Y163.79 E7.39569
G1 X198.265 Y163.79 E7.56983
G1 X197.698 Y163.7 E7.59864
G1 X197.199 Y163.446 E7.62674
G1 X196.804 Y163.051 E7.65477
G1 X196.55 Y162.552 E7.68287
G1 X196.46 Y161.985 E7.71168
G1 X196.46 Y138.015 E8.91464
G1 X196.55 Y137.448 E8.94345
G1 X196.804 Y136.949 E8.97155
G1 X197.199 Y136.554 E8.99958
G1 X197.698 Y136.3 E9.02768
G1 X198.265 Y136.21 E9.05649
G1 X201.735 Y136.21 E9.23063
G1 X202.302 Y136.3 E9.25944
G1 X202.801 Y136.554 E9.28754
G1 X203.196 Y136.949 E9.31557
G1 X203.433 Y137.414 E9.34176
G1 X203.181 Y137.763 F7800
G1 E7.34176 F2400
G92 E0
G1 X197.968 Y138.526 F7800
G1 E2 F2400
;TYPE:Perimeter
G1 F1800
G1 X198.113 Y138.455 E2.0081
G1 X198.366 Y138.445 E2.02081
G1 X201.788 Y138.445 E2.19255
G1 X202.018 Y138.499 E2.20441
G1 X202.129 Y138.574 E2.21113
G1 X202.305 Y138.962 E2.23251
G1 X202.305 Y161.038 E3.34041
G1 X202.297 Y161.127 E3.34489
G1 X202.129 Y161.426 E3.3621
G1 X201.887 Y161.545 E3.37563
G1 X198.212 Y161.555 E3.56006
G1 X197.982 Y161.501 E3.57192
G1 X197.871 Y161.426 E3.57864
G1 X197.703 Y161.127 E3.59585
G1 X197.695 Y138.962 E4.70822
G1 X197.871 Y138.574 E4.7296
G1 X197.914 Y138.553 E4.732
G1 X198.136 Y138.808 F7800
;TYPE:External perimeter
G1 F1800
G1 X198.366 Y138.79 E4.74358
G1 X201.788 Y138.79 E4.91532
G1 X201.902 Y138.833 E4.92143
G1 X201.96 Y138.962 E4.92853
G1 X201.96 Y161.038 E6.03643
G1 X201.902 Y161.167 E6.04353
G1 X201.788 Y161.21 E6.04964
G1 X198.212 Y161.21 E6.2291
G1 X198.098 Y161.167 E6.23521
G1 X198.04 Y161.038 E6.24231
G1 X198.04 Y138.962 E7.35021
G1 X198.104 Y138.859 E7.3563
G1 X198.124 Y138.577 F7800
G1 E5.3563 F2400
G92 E0
G1 X197.257 Y161.205 F7800
G1 E2 F2400
;TYPE:Perimeter
;WIDTH:0.635029
G1 F1800
G1 X197.25 Y161.038 E2.01362
;WIDTH:0.620445
G1 X197.25 Y138.962 E3.76542
G1 E1.76542 F2400
G92 E0
G1 X202.75 Y138.962 F7800
G1 E2 F2400
G1 F1800
G1 X202.75 Y161.038 E3.7518
;WIDTH:0.635029
G1 X202.743 Y161.205 E3.76542
G1 X202.2 Y161.909 F7800
;TYPE:Solid infill
;WIDTH:0.441525
G1 F1800
G1 X202.538 Y162.247 E3.79091
G1 X202.419 Y162.486 E3.80515
G1 X202.339 Y162.566 E3.81118
G1 X201.92 Y162.147 E3.84277
G1 X201.41 Y162.155 E3.86997
G1 X202.03 Y162.775 E3.91672
G1 X202.006 Y162.787 E3.91815
G1 X201.578 Y162.842 E3.94116
G1 X200.892 Y162.155 E3.99292
G1 X200.373 Y162.155 E4.02059
G1 X201.06 Y162.842 E4.07239
G1 X200.542 Y162.842 E4.10001
G1 X199.855 Y162.155 E4.15181
G1 X199.337 Y162.155 E4.17943
G1 X200.024 Y162.842 E4.23123
G1 X199.505 Y162.842 E4.2589
G1 X198.819 Y162.155 E4.31066
G1 X198.301 Y162.155 E4.33828
G1 X198.987 Y162.842 E4.39004
G1 X198.469 Y162.842 E4.41766
G1 X197.58 Y161.952 E4.48473
G1 X197.464 Y161.874 E4.49218
G1 X197.434 Y161.822 E4.49538
G1 X197.408 Y161.829 E4.49682
G1 X197.463 Y162.256 E4.51977
G1 X197.565 Y162.455 E4.53169
G1 X198.065 Y162.955 E4.56939
G1 E2.56939 F2400
G92 E0
G1 X201.936 Y137.046 F7800
G1 E2 F2400
;WIDTH:0.442188
G1 F1800
G1 X202.436 Y137.546 E2.03777
G1 X202.537 Y137.744 E2.04964
G1 X202.592 Y138.177 E2.07295
G1 X202.564 Y138.182 E2.07447
G1 X202.54 Y138.128 E2.07763
G1 X202.415 Y138.044 E2.08567
G1 X201.529 Y137.158 E2.1526
G1 X201.01 Y137.158 E2.18032
G1 X201.693 Y137.842 E2.23195
G1 X201.174 Y137.842 E2.25967
G1 X200.491 Y137.158 E2.3113
G1 X199.972 Y137.158 E2.33902
G1 X200.655 Y137.842 E2.39065
G1 X200.136 Y137.842 E2.41837
G1 X199.453 Y137.158 E2.47
G1 X198.934 Y137.158 E2.49772
G1 X199.617 Y137.842 E2.54935
G1 X199.098 Y137.842 E2.57707
G1 X198.415 Y137.158 E2.6287
G1 X197.994 Y137.213 E2.65138
G1 X197.965 Y137.228 E2.65312
G1 X198.579 Y137.842 E2.6995
G1 X198.072 Y137.855 E2.72659
G1 X197.656 Y137.438 E2.75805
G1 X197.581 Y137.514 E2.76375
G1 X197.46 Y137.762 E2.77849
G1 X197.793 Y138.094 E2.80361
M106 S127.5
;LAYER_CHANGE
;Z:0.62
;HEIGHT:0.27
G1 Z.62 F7800
M104 S210 ; set temperature
G1 E.80361 F2400
G92 E0
G1 X197.257 Y161.198 F7800
G1 E2 F2400
;TYPE:Perimeter
;WIDTH:0.45
G1 F900
G1 X197.602 Y161.789 E2.03012
G1 X197.879 Y161.947 E2.04415
G1 X198.221 Y162.009 E2.05945
G1 X201.779 Y162.009 E2.21604
G1 X202.089 Y161.959 E2.22986
G1 X202.426 Y161.765 E2.24697
G1 X202.743 Y161.198 E2.27556
G1 X202.741 Y161.907 E2.30676
G1 X202.689 Y162.251 E2.32207
G1 X202.57 Y162.519 E2.33498
G1 X202.375 Y162.742 E2.34802
G1 X202.119 Y162.897 E2.36119
G1 X201.672 Y162.991 E2.38129
G1 X198.367 Y162.991 E2.52674
G1 X198.021 Y162.942 E2.54212
G1 X197.737 Y162.823 E2.55567
G1 X197.469 Y162.586 E2.57141
G1 X197.374 Y162.432 E2.57937
G1 X197.259 Y161.96 E2.60075
G1 X197.257 Y161.258 E2.63164
G1 E.63164 F2400
G92 E0
G1 X197.734 Y138.143 F7800
G1 E2 F2400
G1 F900
G1 X197.574 Y138.235 E2.00812
G1 X197.25 Y138.971 E2.04351
G1 X197.259 Y138.093 E2.08215
G1 X197.311 Y137.749 E2.09746
G1 X197.43 Y137.481 E2.11037
G1 X197.625 Y137.258 E2.12341
G1 X197.881 Y137.103 E2.13658
G1 X198.328 Y137.009 E2.15668
G1 X201.633 Y137.009 E2.30213
G1 X201.979 Y137.058 E2.31751
G1 X202.262 Y137.176 E2.331
G1 X202.497 Y137.38 E2.3447
G1 X202.657 Y137.651 E2.35855
G1 X202.741 Y138.093 E2.37835
G1 X202.75 Y138.971 E2.41699
G1 X202.427 Y138.235 E2.45236
G1 X202.089 Y138.041 E2.46951
G1 X201.779 Y137.991 E2.48333
G1 X198.221 Y137.991 E2.63992
G1 X197.911 Y138.041 E2.65374
G1 X197.787 Y138.113 E2.66005
G1 E.66005 F2400
G92 E0
G1 X203.058 Y137.575 F7800
G1 E2 F2400
G1 F3610
G1 X203.133 Y138.093 E2.02303
G1 X203.133 Y161.907 E3.07107
G1 X203.058 Y162.425 E3.0941
G1 X202.863 Y162.809 E3.11305
G1 X202.559 Y163.113 E3.13197
G1 X202.175 Y163.308 E3.15092
G1 X201.703 Y163.383 E3.17195
G1 X198.367 Y163.383 E3.31877
G1 X197.825 Y163.308 E3.34285
G1 X197.441 Y163.113 E3.3618
G1 X197.079 Y162.722 E3.38525
G1 X196.908 Y162.267 E3.40664
G1 X196.867 Y161.976 E3.41957
G1 X196.867 Y138.093 E4.47065
G1 X196.942 Y137.575 E4.49368
G1 X197.137 Y137.191 E4.51263
G1 X197.442 Y136.887 E4.53158
G1 X197.825 Y136.692 E4.55049
G1 X198.297 Y136.617 E4.57152
G1 X201.633 Y136.617 E4.71834
G1 X202.175 Y136.692 E4.74242
G1 X202.559 Y136.887 E4.76137
G1 X202.863 Y137.191 E4.78029
G1 X203.031 Y137.521 E4.79659
G1 X203.438 Y137.471 F7800
;TYPE:External perimeter
G1 F2999.99

G1 X203.525 Y138.093 E4.82423
G1 X203.525 Y138.543 E4.84403
G1 X203.525 Y161.533 E5.85581
G1 X203.525 Y161.983 E5.87561
G1 X203.436 Y162.548 E5.90078
G1 F3000
G1 X203.184 Y163.042 E5.92519
G1 X202.792 Y163.434 E5.94959
G1 X202.298 Y163.686 E5.974
G1 X201.733 Y163.775 E5.99917
G1 F2999.99
G1 X198.267 Y163.775 E6.15171
G1 X197.702 Y163.686 E6.17688
G1 F3000
G1 X197.208 Y163.434 E6.20129
G1 X196.745 Y162.928 E6.23147
G1 X196.535 Y162.388 E6.25697
G1 F2999.983
G1 X196.475 Y161.991 E6.27464
G1 X196.475 Y161.541 E6.29444
G1 X196.475 Y138.467 E7.30992
G1 F3000
G1 X196.475 Y138.017 E7.32972
G1 X196.564 Y137.452 E7.35489
G1 X196.816 Y136.958 E7.3793
G1 X197.208 Y136.566 E7.4037
G1 X197.702 Y136.314 E7.42811
G1 F2999.99
G1 X198.267 Y136.225 E7.45328
G1 X201.733 Y136.225 E7.60582
G1 F3000
G1 X202.298 Y136.314 E7.63099
G1 X202.792 Y136.566 E7.6554
G1 X203.184 Y136.958 E7.6798
G1 X203.417 Y137.415 E7.70238

G1 X203.166 Y137.764 F7800
G1 E5.70238 F2400
G92 E0
G1 X197.941 Y138.476 F7800
G1 E2 F2400
;TYPE:Perimeter
G1 F3610
G1 X198.105 Y138.394 E2.00807
G1 X198.367 Y138.383 E2.01961
G1 X201.779 Y138.383 E2.16977
G1 X202.042 Y138.445 E2.18166
G1 X202.167 Y138.53 E2.18831
G1 X202.367 Y138.971 E2.20962
G1 X202.367 Y161.029 E3.18038
G1 X202.358 Y161.131 E3.18489
G1 X202.167 Y161.47 E3.20201
G1 X201.895 Y161.606 E3.21539
G1 X198.221 Y161.617 E3.37708
G1 X198.016 Y161.58 E3.38625
G1 X197.85 Y161.485 E3.39467
G1 X197.642 Y161.131 E3.41274
